d1
$ every 5 (rev)
$ whenmod 5 6 (# cut "1")
$ every 4 (density "2")
$ whenmod 4 7 (# room "0 0.2 0.6 0")
$ s "{industrial [sid, co, ho, ht, cp, bass1] less}"
# n (every 3 (const (irand 5)) "30 2 4")
# speed (range 0.7 1 $ fast 4 sine)
# orbit "1"

d1 silence
